X:1
L:1/16
M:4/4
K:A
 E2 | A2<A2 A2>A2 A2E2E2f2 | e2<c2TB2>A2{A} F4 F2B2 | AAA2 AAA2 A2>E2E2f2 | e2>f2a2c2 e4 e2>f2 | 
 e2>f2a2e2 Tf2>e2a2c2 | BBB2 Tc2>A2{A} F4 F2>B2 | AAA2 AAA2 A2>E2E2f2 | e2<c2B2>c2 A4 A2 || E2 | 
 C2>(E2A2>)E2 TF2>(E2A2>)E2 | B2>c2 dcBA{A} F4 F2GA | C2>E2A2>E2 TF2>E2A2>E2 | e2>f2 efac e4 e2fg | 
 a2>g2Tf2e2 Tf2>e2Td2c2 | B2c dBcA{A} F4 F2>B2 | A2<A2 A2<A2 A2E2E2f2 | e2<c2TB2>c2 A4 A2 || B2 | 
 (3A2e2c2 (3E2A2E2 (3C2E2C2 A,2>c2 | Bdce dBcA{A} F4 F2>B2 | (3A2e2c2 (3E2A2E2 (3C2E2C2 A,2>B2 | 
 (ABcd efga) e4 e2fg | (ag)(ag) (agfe) (fe)(fe) fedc | Bdce dBcA{A} F4 F2>B2 | 
 A2<A2 A2<A2 A2E2E2f2 |{f} e2dc{e} d2cB{B} A4 A2 || E2 | (CE).A.E (A,E).A.E (CE).A.E (A,E).A.E | 
 (DF).A.F (CE).G.E (B,G).B.G (B,G).B.G | (CE).A.E (A,E).A.E (A,E).A.E | 
 (CE).A.E (B,E).A.E (CE).A.E (A,E).A.E | (DF).A.F (DF).A.F (CE).A.E (CE).A.E | 
 (B,G).B.G (B,G).B.G (B,G).B.G (B,G).B.G | (A,E).A.E (B,E).A.E (CE).A.E (DF).A.F | 
 (CE).A.E (B,E).A.E (CE).A.E A,2 ||
